X: 27988
T: Moving Bog, The
R: reel
M: 4/4
K: Gmajor
GBAF G2AF|D2 (3FED ADFD|DGGF GABc|d2de fdcA|
GBAF GBAF|D2 (3FED ADFD|DGGF GABc|dfe^c d2B=c||
dggf g2ag|fdde fdcA|dggf g2fg|agbg agfe|
dggf gbag|f2fe defg|afge fde^c|d2de fdcA||

